Printex-remake/img/icons/catalog/09.svg

<svg width="98" height="98" viewBox="0 0 98 98" fill="none" xmlns="http://www.w3.org/2000/svg">
<g clip-path="url(#clip0)">
<path fill-rule="evenodd" clip-rule="evenodd" d="M68.4429 73.0339C68.6823 72.713 68.9165 72.3865 69.1455 72.0547C77.7384 59.6021 76.1226 43.5583 66.1837 33.1965C67.4195 33.0582 68.6424 32.9816 69.8458 32.9709C77.6409 32.9012 83.1285 35.6053 85.6863 40.0273C86.2819 41.057 86.1522 42.3207 85.5666 43.3561L68.9837 72.6765C68.8042 72.7966 68.6239 72.9157 68.4429 73.0339Z" fill="#E6E6E6"/>
<path fill-rule="evenodd" clip-rule="evenodd" d="M45.1189 86.0968C54.2973 84.7196 62.9949 81.3014 68.5004 75.9998C77.6736 67.1664 75.2144 54.5442 68.4419 46.9027C73.475 46.8345 78.3509 47.4789 82.6563 48.9198C97.3103 53.8241 99.8064 66.0993 88.2314 76.3372C80.7953 82.9143 61.7054 86.0183 45.1189 86.0968Z" fill="#E6E6E6"/>
<path d="M6.87834 49.4255C3.92918 55.9848 6.90479 63.2482 15.8052 68.3865C29.1757 76.1054 50.8535 76.1054 64.2239 68.3865C71.5713 64.1448 74.8811 58.4549 74.1534 52.9084" stroke="black"/>
<path d="M73.5986 54.084C75.7402 60.3354 72.6153 67.0689 64.2239 71.9133C50.8535 79.6322 29.1757 79.6322 15.8052 71.9133C8.97607 67.9708 5.635 62.7771 5.78199 57.6104" stroke="black"/>
<path d="M6.87834 55.8477C3.92918 62.665 6.90479 70.2142 15.8052 75.5547C29.1757 83.5773 50.8535 83.5773 64.2239 75.5547C71.5713 71.1461 74.8811 65.2323 74.1534 59.4676" stroke="black"/>
<path d="M73.5986 60.6895C75.7402 67.1868 72.6153 74.1852 64.2239 79.2203C50.8535 87.2429 29.1757 87.2429 15.8052 79.2203C8.97607 75.1227 5.635 69.7247 5.78199 64.3546" stroke="black"/>
<path d="M6.43052 47.0308C4.28888 53.2821 7.41377 60.0156 15.8052 64.8601C29.1757 72.579 50.8535 72.579 64.2239 64.8601C72.6153 60.0156 75.7402 53.2821 73.5986 47.0308" stroke="black"/>
<path d="M64.0409 60.9391C57.4433 64.7479 48.7647 66.6666 40.059 66.6666C31.3533 66.6666 22.6747 64.7479 16.0772 60.9391C9.47683 57.1286 6.29004 52.2044 6.29004 47.3829C6.29004 42.5614 9.47683 37.6371 16.0772 33.8267C22.6747 30.0179 31.3533 28.0991 40.059 28.0991C48.7647 28.0991 57.4433 30.0179 64.0409 33.8267C70.6412 37.6371 73.828 42.5614 73.828 47.3829C73.828 52.2044 70.6412 57.1286 64.0409 60.9391Z" fill="#F2F2F2" stroke="black"/>
<path d="M70.998 29.0036C71.3064 29.9225 71.0092 30.9546 70.3139 31.7548L51.3381 53.5952C49.3346 55.9012 46.8523 57.7419 43.9815 58.6594C36.0957 61.1794 27.7607 62.0232 20.6462 60.6427C13.1434 59.1868 8.5126 55.5593 6.93698 50.9877C5.36136 46.416 6.7739 40.7057 11.7865 34.9364C16.797 29.1695 24.3981 24.5146 32.6517 21.67C40.9054 18.8254 49.7603 17.8087 57.26 19.264C64.8089 20.7288 69.4502 24.3917 70.998 29.0036Z" fill="#F2F2F2" stroke="black"/>
<path d="M48.5 42.4998C47.314 43.8609 46.5931 46.4998 46.0224 48.4998C41.5157 51.172 35.6656 52.4878 31.0077 51.5772C24.5779 50.3202 22.8545 45.2969 27.1583 40.3573C31.4621 35.4177 40.1633 32.4324 46.5931 33.6894C50.1087 34.3767 52.2173 36.1899 52.703 38.4998C51.5 38.9998 50.4506 40.261 48.5 42.4998Z" fill="white"/>
<path d="M71.553 29.2095C62.1319 31.651 54.3216 35.5977 49.8952 40.692C45.4687 45.7863 45.1562 51.1881 48.2279 56.0542" stroke="black"/>
<path d="M23.3343 56.5066C10.792 54.2591 7.91298 45.1176 16.9038 36.0884C25.8946 27.0593 43.3506 21.5617 55.8928 23.8092" stroke="black"/>
</g>
<defs>
<clipPath id="clip0">
<rect width="98" height="98" fill="white"/>
</clipPath>
</defs>
</svg>

<svg width="98" height="98" fill="none" xmlns="http://www.w3.org/2000/svg"><g clip-path="url(#clip0)"><path fill-rule="evenodd" clip-rule="evenodd" d="M68.443 73.034c.24-.321.474-.648.703-.98 8.592-12.452 6.977-28.496-2.962-38.858a35.815 35.815 0 013.662-.225c7.795-.07 13.282 2.634 15.84 7.056.596 1.03.466 2.294-.12 3.33l-16.582 29.32c-.18.12-.36.239-.541.357z" fill="#E6E6E6"/><path fill-rule="evenodd" clip-rule="evenodd" d="M45.119 86.097C54.297 84.72 62.995 81.3 68.5 76c9.174-8.834 6.714-21.456-.058-29.097 5.033-.069 9.909.576 14.214 2.017 14.654 4.904 17.15 17.18 5.575 27.417-7.436 6.577-26.526 9.681-43.112 9.76z" fill="#E6E6E6"/><path d="M6.878 49.425c-2.949 6.56.027 13.823 8.927 18.962 13.37 7.718 35.048 7.718 48.419 0 7.347-4.242 10.657-9.932 9.93-15.479" stroke="#000"/><path d="M73.599 54.084c2.141 6.251-.984 12.985-9.375 17.83-13.37 7.718-35.048 7.718-48.419 0C8.976 67.97 5.635 62.776 5.782 57.61" stroke="#000"/><path d="M6.878 55.848c-2.949 6.817.027 14.366 8.927 19.707 13.37 8.022 35.048 8.022 48.419 0 7.347-4.409 10.657-10.323 9.93-16.087" stroke="#000"/><path d="M73.599 60.69c2.141 6.497-.984 13.495-9.375 18.53-13.37 8.023-35.048 8.023-48.419 0-6.829-4.097-10.17-9.495-10.023-14.865" stroke="#000"/><path d="M6.43 47.03c-2.141 6.252.984 12.986 9.375 17.83 13.37 7.719 35.048 7.719 48.419 0 8.391-4.844 11.516-11.578 9.375-17.83" stroke="#000"/><path d="M64.04 60.94c-6.597 3.808-15.275 5.727-23.981 5.727-8.706 0-17.384-1.92-23.982-5.728-6.6-3.81-9.787-8.735-9.787-13.556 0-4.822 3.187-9.746 9.787-13.556 6.598-3.81 15.276-5.728 23.982-5.728s17.384 1.919 23.982 5.728c6.6 3.81 9.787 8.734 9.787 13.556 0 4.821-3.187 9.746-9.787 13.556z" fill="#F2F2F2" stroke="#000"/><path d="M70.998 29.004c.308.918.011 1.95-.684 2.75L51.338 53.596c-2.003 2.306-4.486 4.147-7.357 5.064-7.885 2.52-16.22 3.364-23.335 1.984-7.503-1.456-12.133-5.084-13.709-9.655-1.576-4.572-.163-10.282 4.85-16.052 5.01-5.767 12.611-10.421 20.865-13.266 8.253-2.845 17.108-3.861 24.608-2.406 7.549 1.465 12.19 5.128 13.738 9.74z" fill="#F2F2F2" stroke="#000"/><path d="M48.5 42.5c-1.186 1.36-1.907 4-2.478 6-4.506 2.672-10.356 3.988-15.014 3.077-6.43-1.257-8.153-6.28-3.85-11.22 4.304-4.94 13.005-7.925 19.435-6.668 3.516.688 5.624 2.5 6.11 4.81-1.203.5-2.252 1.762-4.203 4z" fill="#fff"/><path d="M71.553 29.21c-9.421 2.441-17.231 6.388-21.658 11.482-4.426 5.094-4.739 10.496-1.667 15.362m-24.894.453c-12.542-2.248-15.421-11.39-6.43-20.419 8.99-9.029 26.447-14.526 38.989-12.279" stroke="#000"/></g><defs><clipPath id="clip0"><path fill="#fff" d="M0 0h98v98H0z"/></clipPath></defs></svg>
